X:88
T:The Black Bear
C:Traditional Scottish
R:March
S:Colin Hume's website,  colinhume.com  - chords can also be printed below the stave.
Q:1/2=112
M:2/2
L:1/8
K:D
P:A
|: "D"dz dz fdaf | dz dz fdaf | "Em"e2B2 "E7"B2ed | "A7"cdBc ABcA |\
"D"dz dz fdaf | dz dz fdaf | "Em"e2e2 "A7"egfe | "D"d2f2 d4 :|
P:B
"A"A2AB "Bm"d2de | "Em"g2fe "D"fafd | "A"A2AB "Bm"d2de | "Em"g2fe "D"fafd |\
"A"aAAA cAAA | dBBB eccc | "Bm"d2d2 "Em"egfg | "A7"a2a2 agfe |
P:C
"D"dz dz fdaf | dz dz fdaf | "Em"e2B2 "E7"B2ed | "A7"cdBc ABcA |\
"D"dz dz fdaf | dz dz fdaf | "Em"e2e2 "A7"egfe | "D"d2f2 d4 |]

